X:135
T:Sean Bui
Z: id:dc-jig-149
M:6/8
L:1/8
K:D Major
DED AFA|BGB AFD|DED AFA|B2c d3|!
DED AFA|BGB AFA|dfd edc|B2c d3:|!
dfd edc|dcB AFA|dfd edc|B2c d2|!
[1 z|dfd edc|dcB AFD|DED AFA|B2c d3:|!
[2 f|afd edc|dcB AFD|DED AFA|B2c d3|]!

